X:1
T:Peacherine  Rag.
T:PEACHERINE   RAG.
T:by  SCOTT  JOPLIN.
T:Public Domain
T:Public Domain
T:Public Domain
T:Public Domain
C:Scott Joplin
Z:Public Domain
%%score { ( 1 3 ) | ( 2 4 ) }
L:1/8
Q:1/4=72
M:2/4
K:Eb
V:1 treble nm="Piano" snm="Pno."
V:3 treble 
V:2 bass 
V:4 bass 
V:1
"^Not too fast." e/f/g/f/- fB | f/g/a/g/- gB | c/c=B/ c/d/e | _B B- B/G/A/=A/ |: B[Ge] [Gd][Gc] | %5
 [GB]/[Ge][Gd]/- [Gd]/c/B/G/ | [GB][Ge] [Gd][Gc] | [AB]/[Ad][Ac]/- [Ac]/B/F/G/ | A[Ad] [Ac][AB] | %9
 A/[Ad][Ac]/- [Ac]/B/d/f/ | [Ada] [Ada]2 [=Ae=a] | [Beb]2- [Beb]/G/A/=A/ | B[Ge] [Gd][Gc] | %13
 [GB]/[Ge][Gd]/- [Gd]/c/B/G/ | [Gg] [G=Bg]2 [GBf] | [Gce]3 c | [cef][cef] [ce^f][cef] | %17
 [Beg]/[Beg][Bb]/ [Bc=ea][Bceg] | [=Ag]/[Ag][Ae]/ (f/e/)[_Af] |1 [Ge]2- [Ge]/G/A/=A/ :|2 %20
 [Ge]2- [Ge] z |:[K:Bb] z [Aef][Aeg][Aef] | z [eac'][ead'][eac'] | z [db][da][dg] | %24
 [dg]/f/=e/f/- f/g/f | z [eae'][eae'][ead'] | d'/c'/=b/c'/- c'/(f'/f) | z [dbd'][dfd'][dfc'] | %28
 c'/b/a/b/- b/(f'/f) | z [Aef][Aeg][Aef] | z [eac'][ead'][eac'] | z [db][da][dg] | %32
 [dg]/f/=e/f/- f/d/_e/f/ | [Gg]/[Be]/[Gg]/[Aa]/- [Aa]/[Gg][Be]/ | %34
 [Ff]/[Bd]/[Ff]/[Gg]/- [Gg]/[Ff]B/ | [=EBd]/[EBd][EBd]/ (c/B/)[_Ec] |1 [DB]2- [DB] z :|2 %37
 [DB]2 [D_AB]2 ||[K:Eb] B[Ge] [Gd][Gc] | [GB]/[Ge][Gd]/- [Gd]/c/B/G/ | [GB][Ge] [Gd][Gc] | %41
 [AB]/[Ad][Ac]/- [Ac]/B/F/G/ | A[Ad] [Ac][AB] | A/[Ad][Ac]/- [Ac]/B/d/f/ | [Ada] [Ada]2 [=Ae=a] | %45
 [Beb]2- [Beb]/G/A/=A/ | B[Ge] [Gd][Gc] | [GB]/[Ge][Gd]/- [Gd]/c/B/G/ | [Gg] [G=Bg]2 [GBf] | %49
 [Gce]3 c | [cef][cef] [ce^f][cef] | [Beg]/[Beg][Bb]/ [B=ea][Beg] | [=Ag]/[Ag][Ae]/ (f/e/)[_Af] | %53
 [Ge]2 [G_de] z |:[K:Ab] [Ee]/c/[Ee]/A/ c/[Ee]A/ | [Ec]/=A/[Ec]/[EAd]/- [EAd]/[EAc]A/ | %56
 [=DF_Ac][DFAB]/[DFAc]/- [DFAc]/B/A/F/ | [=DAc][DAB]/[DAc]/- [DAc]/B/A/F/ | d2 z2 | d2 z2 | %60
 [Ec][=Ec]/[Fc]/- [Fc]/[Ac][Fc]/ | [_Ec][=Ec]/[Fc]/- [Fc]3/2(A/4c/4) | [Ee]/c/[Ee]/A/ c/[Ee]A/ | %63
 [Ec]/=A/[Ec]/[EAd]/- [EAd]/[EAc]A/ | [=DF_Ac][DFAB]/[DFAc]/- [DFAc]/B/A/F/ | %65
 [=DAc][DAB]/[DAc]/- [DAc]/B/A/F/ | d2 z2 | E/G/F/G/ d/[DG][CA]/- |1 [CA]4- | %69
 [CA]{/f} e{/F} EA/c/ :|2 (([CA]4- | [CA])) z [Aca]E |: G/Bc/ dg/f/ | [de] [de]2 E | A/cd/ ea/f/ | %75
 [ce] [ce]2 [ce] | [df]/[df][df]/- [df]/a/b/a/ | [cc'][cc']- [cc']/[ee']/[=d=d']/[cc']/ | %78
 [Bb]/g/c'/b/ a/=db/ | e z [ege']E | G/Bc/ dg/f/ | [de] [de]2 E | A/cd/ ea/f/ | [ce] [ce]2 [ce] | %84
 [df]/[df][=Bf]/- f/(a/g/f/) | [ce][ce]- [ce]/e/c/B/ | [=DA][DA] [_DGB]/[DGB]E/ |1 [CA]e/e/ eE :|2 %88
 [CA]2 [Aca] z |] %89
V:2
 E,/F,/G,/F,/- F,B,, | F,/G,/A,/G,/- G,B,, | C,/C,=B,,/ C,/D,/E, | _B,, B,,2 z |: %4
 E,[G,B,E] B,,[G,B,E] | E,[G,B,E] B,,[G,B,E] | E,[G,B,E] B,,[G,B,E] | F,[A,B,D] B,,[A,B,D] | %8
 F,[A,B,D] B,,[A,B,D] | F,[A,B,D] B,,[A,B,D] | F,[B,D] ^F,[F,CE] | G,[B,E] [B,E] z | %12
 E,[G,B,E] B,,[G,B,E] | E,[G,B,E] B,,[G,B,E] | =B,,[G,DF] G,,[G,DF] | C,[G,CE] [G,CE] z | %16
 [A,,A,]2 [=A,,=A,]2 | [B,,B,][G,B,E] C,[G,B,C=E] | [F,C_E][F,CE] [B,D][B,D] |1 %19
 [E,E][G,B,E] [G,B,E] z :|2 [E,E][B,,B,] [E,,E,]F,, |:[K:Bb] C,[F,CE] F,,[F,CE] | %22
 C,[F,A,E] F,,[F,A,E] | B,,[F,B,D] F,,[F,B,D] | B,,[F,B,D] F,,[F,B,D] | C,[F,CE] F,,[F,A,E] | %26
 C,[F,A,E] F,,[F,A,E] | B,,[F,B,D] F,,[F,B,D] | B,,[F,B,D] F,,[F,B,D] | C,[F,CE] F,,[F,CE] | %30
 C,[F,A,E] F,,[F,A,E] | B,,[F,B,D] F,,[F,B,D] | B,,[F,B,D] D,[F,B,D] | %33
 [E,,E,][E,,E,] [F,,F,][E,,E,] | [D,,D,][D,,D,] [E,,E,][D,,D,] | [C,,C,][C,,C,] [F,,F,][F,,F,] |1 %36
 [B,,B,][F,B,] [F,B,]F,, :|2 [B,,B,][F,,F,] [B,,,B,,]2 ||[K:Eb] E,[G,B,E] B,,[G,B,E] | %39
 E,[G,B,E] B,,[G,B,E] | E,[G,B,E] B,,[G,B,E] | F,[A,B,D] B,,[A,B,D] | F,[A,B,D] B,,[A,B,D] | %43
 F,[A,B,D] B,,[A,B,D] | F,[B,D] ^F,[F,CE] | G,[B,E] [B,E] z | E,[G,B,E] B,,[G,B,E] | %47
 E,[G,B,E] B,,[G,B,E] | =B,,[G,DF] G,,[G,DF] | C,[G,CE] [G,CE] z | [A,,A,]2 [=A,,=A,]2 | %51
 [B,,B,][G,B,E] C,[G,C=E] | [F,C_E][F,CE] [B,D][B,D] | [E,E][B,,B,] [E,,E,] z |: %54
[K:Ab] [A,,A,][E,A,C] [E,,E,][E,A,C] | [=A,,=A,][A,,A,] [F,,F,][F,,F,] | %56
 [=D,,=D,][D,,D,] [B,,,B,,][B,,,B,,] | [F,,F,][F,,F,] [B,,,B,,][B,,,B,,] | %58
 [E,,E,][E,G,D] [G,,G,][E,B,D] | [B,,B,][E,G,D] [E,,E,][E,G,D] | [A,,A,][E,A,C] [E,,E,][E,A,C] | %61
 [A,,A,][E,A,C] [E,,E,][E,A,C] | [A,,A,][E,A,C] [E,,E,][E,A,C] | [=A,,=A,][A,,A,] [F,,F,][F,,F,] | %64
 [=D,,=D,][D,,D,] [B,,,B,,][B,,,B,,] | [F,,F,][F,,F,] [B,,,B,,][B,,,B,,] | %66
 [E,,E,][E,G,D] [G,,G,][E,B,D] | [B,,B,][E,G,D] [E,,E,][E,G,B,] |1 %68
 [A,,A,][E,,E,]/[F,,F,]/- [F,,F,]/[E,,E,]/[F,,F,]/[G,,G,]/ | [A,,A,] z z2 :|2 %70
 [A,,A,][E,,E,] [F,,F,]/[E,,E,][C,,C,]/ | [A,,,A,,] z [A,,,A,,] z |: %72
 [B,,B,][E,G,D] [E,,E,][E,B,D] | [G,,G,][E,B,D] [E,,E,][E,G,D] | [A,,A,][E,A,C] [E,,E,][E,A,C] | %75
 A,,[E,A,C] C,,[E,A,C] | D,,[F,A,D] D,,[_F,A,D] | A,,[E,A,C] =A,,[^F,=A,CE] | %78
 B,,[G,B,E] B,,[F,A,B,=D] | [E,G,B,E][G,,G,]/[B,,B,]/ [E,,E,] z | [B,,B,][E,G,D] [E,,E,][E,B,D] | %81
 [G,,G,][E,B,D] [E,,E,][E,G,D] | [A,,A,][E,A,C] [E,,E,][E,A,C] | A,,[E,A,C] C,,[E,A,C] | %84
 D,,[F,A,D] =D,,[F,A,=B,] | E,,[E,A,C] [E,,E,][=E,,=E,] | [F,,F,][F,,F,] [_E,,_E,][G,,G,] |1 %87
 [A,,A,] z z2 :|2 [A,,A,][E,,E,] [A,,,A,,] z |] %89
V:3
 x4 | x4 | x4 | x4 |: x4 | x4 | x4 | x4 | x4 | x4 | x4 | z e/f/ g/ z/ z | x4 | x4 | x4 | %15
 z c'/d'/ e' z | x4 | x4 | x2 _A2 |1 x4 :|2 x4 |:[K:Bb] x4 | x4 | x4 | x4 | x4 | [ea]3 z | x4 | %28
 [df]3 z | x4 | x4 | x4 | x4 | x4 | x4 | x2 [_EA]2 |1 x4 :|2 x4 ||[K:Eb] x4 | x4 | x4 | x4 | x4 | %43
 x4 | x4 | z e/f/ g/ z/ z | x4 | x4 | x4 | z c'/d'/ e' z | x4 | x4 | x2 _A2 | x4 |:[K:Ab] x4 | x4 | %56
 x4 | x4 | E3/2(F/4G/4) B/[Fd]G/ | E3/2(F/4G/4) B/[Fd]G/ | x4 | x4 | x4 | x4 | x4 | x4 | %66
 E3/2(F/4G/4) B/[Fd]G/ | x4 |1 x4 | x4 :|2 x4 | x4 |: x4 | x4 | x4 | x4 | x4 | x4 | x4 | x4 | x4 | %81
 x4 | x4 | x4 | x2 B2 | x4 | x4 |1 x4 :|2 x4 |] %89
V:4
 x4 | x4 | x4 | x4 |: x4 | x4 | x4 | x4 | x4 | x4 | x4 | G,2 x x | x4 | x4 | x4 | x4 | x4 | x4 | %18
 x4 |1 x4 :|2 x4 |:[K:Bb] x4 | x4 | x4 | x4 | x4 | x4 | x4 | x4 | x4 | x4 | x4 | x4 | x4 | x4 | %35
 x4 |1 x4 :|2 x4 ||[K:Eb] x4 | x4 | x4 | x4 | x4 | x4 | x4 | x4 | x4 | x4 | x4 | x4 | x4 | x4 | %52
 x4 | x4 |:[K:Ab] x4 | x4 | x4 | x4 | x4 | x4 | x4 | x4 | x4 | x4 | x4 | x4 | x4 | x4 |1 x4 | %69
 x4 :|2 x4 | x4 |: x4 | x4 | x4 | x4 | x4 | x4 | x4 | x4 | x4 | x4 | x4 | x4 | x4 | x4 | x4 |1 %87
 x4 :|2 x4 |] %89

